packages/bezier-icons/icons/voice-wave-missed.svg

<svg width="24" height="24" viewBox="0 0 24 24" fill="none" xmlns="http://www.w3.org/2000/svg">
<path fill-rule="evenodd" clip-rule="evenodd" d="M16 13.1719V7.5C16 6.67157 15.3284 6 14.5 6C13.6716 6 13 6.67157 13 7.5V10.1719L16 13.1719ZM11 8.17188V4.5C11 3.67157 10.3284 3 9.5 3C8.67157 3 8 3.67157 8 4.5V5.17188L11 8.17188ZM8 9L11 12V19.5C11 20.3284 10.3284 21 9.5 21C8.67157 21 8 20.3284 8 19.5V9ZM13 14L15.9357 16.9357C15.7491 17.5517 15.1769 18 14.5 18C13.6716 18 13 17.3284 13 16.5V14ZM3 9.5C3 8.67157 3.67157 8 4.5 8C5.32843 8 6 8.67157 6 9.5V14.5C6 15.3284 5.32843 16 4.5 16C3.67157 16 3 15.3284 3 14.5V9.5ZM19.5 9C18.6716 9 18 9.67157 18 10.5V13.5C18 14.3284 18.6716 15 19.5 15C20.3284 15 21 14.3284 21 13.5V10.5C21 9.67157 20.3284 9 19.5 9Z" fill="#313234"/>
<path fill-rule="evenodd" clip-rule="evenodd" d="M20.9998 21.0002L2.99985 3.00015L4.41406 1.58594L22.4141 19.5859L20.9998 21.0002Z" fill="#313234"/>
</svg>

<svg xmlns="http://www.w3.org/2000/svg" width="24" height="24" fill="none" viewBox="0 0 24 24"><path fill="#313234" fill-rule="evenodd" d="M16 13.172V7.5a1.5 1.5 0 0 0-3 0v2.672zm-5-5V4.5a1.5 1.5 0 0 0-3 0v.672zM8 9l3 3v7.5a1.5 1.5 0 0 1-3 0zm5 5 2.936 2.936A1.5 1.5 0 0 1 13 16.5zM3 9.5a1.5 1.5 0 1 1 3 0v5a1.5 1.5 0 0 1-3 0zM19.5 9a1.5 1.5 0 0 0-1.5 1.5v3a1.5 1.5 0 0 0 3 0v-3A1.5 1.5 0 0 0 19.5 9" clip-rule="evenodd"/><path fill="#313234" fill-rule="evenodd" d="M21 21 3 3l1.414-1.414 18 18z" clip-rule="evenodd"/></svg>
